X: 39422
T: Tara From Macclesfield
R: jig
M: 6/8
K: Dmajor
|:Ade fed|Bef gfe|Ade fed|e3 ecA|
Ade fed|Bef gfe|faf gec|edc d3:|
|:AfA AfA|BgB BgB|AfA AfA|efd cBA|
AfA AfA|BgB BgB|faf gec|edc d3:|

